MonoIcons/scalable/status/weather-fog-symbolic.svg

<?xml version="1.0" encoding="UTF-8"?>
<svg height="16px" viewBox="0 0 16 16" width="16px" xmlns="http://www.w3.org/2000/svg">
    <path d="m 3.316406 0.992188 c -0.621094 0 -1 0.332031 -1.273437 0.59375 c -0.273438 0.265624 -0.480469 0.542968 -0.675781 0.796874 c -0.191407 0.25 -0.371094 0.46875 -0.484376 0.578126 c -0.113281 0.113281 -0.121093 0.03125 0.113282 0.03125 c -0.546875 0 -0.996094 0.449218 -0.996094 0.996093 c 0 0.265625 0.105469 0.519531 0.292969 0.707031 s 0.441406 0.292969 0.703125 0.292969 c 0.625 0 1.003906 -0.328125 1.273437 -0.59375 c 0.273438 -0.265625 0.484375 -0.542969 0.675781 -0.792969 c 0.148438 -0.191406 0.261719 -0.324218 0.371094 -0.445312 c 0.109375 0.121094 0.222656 0.253906 0.371094 0.445312 c 0.191406 0.25 0.402344 0.53125 0.671875 0.792969 c 0.273437 0.265625 0.652344 0.59375 1.277344 0.59375 c 0.625 0.003907 1 -0.328125 1.273437 -0.59375 c 0.273438 -0.261719 0.484375 -0.542969 0.675782 -0.792969 c 0.148437 -0.191406 0.261718 -0.324218 0.371093 -0.445312 c 0.109375 0.121094 0.222657 0.257812 0.367188 0.445312 c 0.195312 0.253907 0.402343 0.53125 0.675781 0.796876 c 0.273438 0.265624 0.652344 0.59375 1.273438 0.59375 c 0.625 0 1.003906 -0.328126 1.273437 -0.59375 c 0.273437 -0.265626 0.484375 -0.542969 0.675781 -0.792969 c 0.148438 -0.191407 0.261719 -0.324219 0.371094 -0.445313 c 0.109375 0.121094 0.222656 0.253906 0.371094 0.445313 c 0.191406 0.25 0.402344 0.53125 0.675781 0.792969 c 0.273437 0.265624 0.648437 0.59375 1.273437 0.59375 c 0.550782 0.003906 0.996094 -0.445313 0.996094 -0.996094 c 0 -0.480469 -0.34375 -0.894532 -0.820312 -0.980469 c -0.011719 -0.007813 -0.03125 -0.019531 -0.058594 -0.046875 c -0.117188 -0.109375 -0.296875 -0.332031 -0.488281 -0.582031 c -0.191407 -0.25 -0.402344 -0.53125 -0.671875 -0.796875 c -0.273438 -0.261719 -0.652344 -0.589844 -1.273438 -0.59375 c -0.625 0 -1.003906 0.332031 -1.277344 0.59375 c -0.273437 0.265625 -0.480468 0.542968 -0.671874 0.792968 c -0.148438 0.191407 -0.265626 0.324219 -0.371094 0.445313 c -0.109375 -0.121094 -0.226563 -0.253906 -0.371094 -0.445313 c -0.195312 -0.25 -0.402344 -0.527343 -0.675781 -0.792968 c -0.273438 -0.265625 -0.648438 -0.59375 -1.273438 -0.59375 s -1.003906 0.328125 -1.273437 0.59375 c -0.273438 0.265625 -0.484375 0.542968 -0.675782 0.792968 c -0.148437 0.191407 -0.261718 0.324219 -0.371093 0.441407 c -0.109375 -0.117188 -0.222657 -0.25 -0.371094 -0.441407 c -0.191406 -0.25 -0.402344 -0.53125 -0.671875 -0.796874 c -0.273438 -0.261719 -0.652344 -0.589844 -1.273438 -0.59375 z m 0 5.003906 c -0.621094 0 -1 0.328125 -1.273437 0.59375 c -0.273438 0.265625 -0.480469 0.542968 -0.675781 0.792968 c -0.191407 0.25 -0.371094 0.472657 -0.484376 0.582032 c -0.113281 0.109375 -0.121093 0.03125 0.113282 0.03125 c -0.546875 0 -0.996094 0.445312 -0.996094 0.996094 c 0 0.265624 0.105469 0.519531 0.292969 0.707031 s 0.441406 0.292969 0.703125 0.289062 c 0.625 0.003907 1.003906 -0.328125 1.273437 -0.59375 c 0.273438 -0.261719 0.484375 -0.542969 0.675781 -0.792969 c 0.148438 -0.1875 0.261719 -0.320312 0.371094 -0.441406 c 0.109375 0.121094 0.222656 0.253906 0.371094 0.441406 c 0.191406 0.253907 0.402344 0.53125 0.671875 0.796876 c 0.273437 0.265624 0.652344 0.59375 1.277344 0.59375 s 1 -0.328126 1.273437 -0.59375 c 0.273438 -0.265626 0.484375 -0.542969 0.675782 -0.792969 c 0.148437 -0.191407 0.261718 -0.324219 0.371093 -0.445313 c 0.109375 0.121094 0.222657 0.253906 0.367188 0.445313 c 0.195312 0.25 0.402343 0.53125 0.675781 0.792969 c 0.273438 0.265624 0.652344 0.59375 1.273438 0.59375 c 0.625 0.003906 1.003906 -0.328126 1.273437 -0.59375 c 0.273437 -0.261719 0.484375 -0.542969 0.675781 -0.792969 c 0.148438 -0.1875 0.261719 -0.324219 0.371094 -0.445313 c 0.109375 0.121094 0.222656 0.253906 0.371094 0.445313 c 0.191406 0.253906 0.402344 0.53125 0.671875 0.796875 c 0.273437 0.265625 0.652343 0.59375 1.277343 0.59375 c 0.550782 0 0.996094 -0.445313 0.996094 -0.996094 c 0 -0.484375 -0.34375 -0.894531 -0.820312 -0.980469 c -0.011719 -0.007812 -0.03125 -0.023437 -0.058594 -0.046875 c -0.117188 -0.113281 -0.296875 -0.332031 -0.488281 -0.582031 c -0.191407 -0.253906 -0.402344 -0.53125 -0.671875 -0.796875 c -0.273438 -0.265625 -0.652344 -0.59375 -1.273438 -0.59375 c -0.625 0 -1.003906 0.328125 -1.277344 0.59375 c -0.273437 0.265625 -0.480468 0.542969 -0.671874 0.792969 c -0.148438 0.191406 -0.265626 0.324219 -0.371094 0.445312 c -0.109375 -0.121093 -0.226563 -0.253906 -0.371094 -0.445312 c -0.195312 -0.25 -0.402344 -0.53125 -0.675781 -0.792969 c -0.273438 -0.265625 -0.648438 -0.59375 -1.273438 -0.59375 c -0.625 -0.003906 -1.003906 0.328125 -1.273437 0.59375 c -0.273438 0.261719 -0.484375 0.542969 -0.675782 0.792969 c -0.148437 0.1875 -0.261718 0.320312 -0.371093 0.441406 c -0.109375 -0.121094 -0.222657 -0.253906 -0.371094 -0.441406 c -0.191406 -0.253907 -0.402344 -0.53125 -0.671875 -0.796875 c -0.273438 -0.265625 -0.652344 -0.59375 -1.273438 -0.59375 z m 0 5.003906 c -0.621094 -0.003906 -1 0.328125 -1.273437 0.59375 c -0.273438 0.261719 -0.480469 0.539062 -0.675781 0.792969 c -0.191407 0.25 -0.371094 0.46875 -0.484376 0.582031 c -0.113281 0.109375 -0.121093 0.027344 0.113282 0.027344 c -0.546875 0 -0.996094 0.449218 -0.996094 0.996094 c 0 0.265624 0.105469 0.519531 0.292969 0.707031 s 0.441406 0.292969 0.703125 0.292969 c 0.625 0 1.003906 -0.328126 1.273437 -0.59375 c 0.273438 -0.265626 0.484375 -0.542969 0.675781 -0.792969 c 0.148438 -0.191407 0.261719 -0.324219 0.371094 -0.445313 c 0.109375 0.121094 0.222656 0.253906 0.371094 0.445313 c 0.191406 0.25 0.402344 0.53125 0.671875 0.792969 c 0.273437 0.265624 0.652344 0.59375 1.277344 0.59375 c 0.625 0.003906 1 -0.328126 1.273437 -0.59375 c 0.273438 -0.261719 0.484375 -0.542969 0.675782 -0.792969 c 0.148437 -0.191407 0.261718 -0.324219 0.371093 -0.445313 c 0.109375 0.121094 0.222657 0.257813 0.367188 0.445313 c 0.195312 0.253906 0.402343 0.53125 0.675781 0.796875 s 0.652344 0.59375 1.273438 0.59375 c 0.625 0 1.003906 -0.328125 1.273437 -0.59375 c 0.273437 -0.265625 0.484375 -0.542969 0.675781 -0.792969 c 0.148438 -0.191406 0.261719 -0.324219 0.371094 -0.445313 c 0.109375 0.121094 0.222656 0.253907 0.371094 0.445313 c 0.191406 0.25 0.402344 0.53125 0.675781 0.792969 c 0.273437 0.265625 0.648437 0.59375 1.273437 0.59375 c 0.550782 0.003906 0.996094 -0.445313 0.996094 -0.996094 c 0 -0.480469 -0.34375 -0.894531 -0.820312 -0.980469 c -0.011719 -0.007812 -0.03125 -0.019531 -0.058594 -0.046875 c -0.117188 -0.109375 -0.296875 -0.332031 -0.488281 -0.582031 c -0.191407 -0.25 -0.402344 -0.527344 -0.671875 -0.792969 c -0.273438 -0.265625 -0.652344 -0.59375 -1.273438 -0.597656 c -0.625 0 -1.003906 0.332031 -1.277344 0.59375 c -0.273437 0.265625 -0.480468 0.542969 -0.671874 0.792969 c -0.148438 0.191406 -0.265626 0.324219 -0.371094 0.445312 c -0.109375 -0.121093 -0.226563 -0.253906 -0.371094 -0.445312 c -0.195312 -0.25 -0.402344 -0.527344 -0.675781 -0.792969 c -0.273438 -0.265625 -0.648438 -0.59375 -1.273438 -0.59375 s -1.003906 0.328125 -1.273437 0.59375 c -0.273438 0.265625 -0.484375 0.542969 -0.675782 0.792969 c -0.148437 0.191406 -0.261718 0.324219 -0.371093 0.441406 c -0.109375 -0.117187 -0.222657 -0.25 -0.371094 -0.441406 c -0.191406 -0.25 -0.402344 -0.53125 -0.671875 -0.796875 c -0.273438 -0.261719 -0.652344 -0.589844 -1.273438 -0.59375 z m 0 0" fill="#2e3436" fill-opacity="0.34902"/>
</svg>

<svg width="16" height="16" viewBox="0 0 16 16" fill="none" xmlns="http://www.w3.org/2000/svg">
<path d="M3.31641 0.992188C2.69531 0.992188 2.31641 1.32422 2.04297 1.58594C1.76953 1.85156 1.5625 2.12891 1.36719 2.38281C1.17578 2.63281 0.996094 2.85156 0.882812 2.96094C0.769531 3.07422 0.761719 2.99219 0.996094 2.99219C0.449219 2.99219 0 3.44141 0 3.98828C0 4.25391 0.105469 4.50781 0.292969 4.69531C0.480469 4.88281 0.734375 4.98828 0.996094 4.98828C1.62109 4.98828 2 4.66016 2.26953 4.39453C2.54297 4.12891 2.75391 3.85156 2.94531 3.60156C3.09375 3.41016 3.20703 3.27734 3.31641 3.15625C3.42578 3.27734 3.53906 3.41016 3.6875 3.60156C3.87891 3.85156 4.08984 4.13281 4.35938 4.39453C4.63281 4.66016 5.01172 4.98828 5.63672 4.98828C6.26172 4.99219 6.63672 4.66016 6.91016 4.39453C7.1836 4.13281 7.39453 3.85156 7.58594 3.60156C7.73438 3.41016 7.84766 3.27734 7.95703 3.15625C8.06641 3.27734 8.17969 3.41406 8.32422 3.60156C8.51953 3.85547 8.72656 4.13281 9 4.39844C9.27344 4.66406 9.65235 4.99219 10.2734 4.99219C10.8984 4.99219 11.2773 4.66406 11.5469 4.39844C11.8203 4.13281 12.0313 3.85547 12.2227 3.60547C12.3711 3.41406 12.4844 3.28125 12.5938 3.16016C12.7031 3.28125 12.8164 3.41406 12.9648 3.60547C13.1563 3.85547 13.3672 4.13672 13.6406 4.39844C13.9141 4.66406 14.2891 4.99219 14.9141 4.99219C15.4648 4.99609 15.9102 4.54687 15.9102 3.99609C15.9102 3.51562 15.5664 3.10156 15.0898 3.01562C15.0781 3.00781 15.0586 2.99609 15.0313 2.96875C14.9141 2.85937 14.7344 2.63672 14.543 2.38672C14.3516 2.13672 14.1406 1.85547 13.8711 1.58984C13.5977 1.32812 13.2188 1 12.5977 0.996094C11.9727 0.996094 11.5938 1.32812 11.3203 1.58984C11.0469 1.85547 10.8398 2.13281 10.6484 2.38281C10.5 2.57422 10.3828 2.70703 10.2773 2.82812C10.168 2.70703 10.0508 2.57422 9.90625 2.38281C9.71094 2.13281 9.50391 1.85547 9.23047 1.58984C8.95703 1.32422 8.58203 0.996094 7.95703 0.996094C7.33203 0.996094 6.95313 1.32422 6.6836 1.58984C6.41016 1.85547 6.19922 2.13281 6.00781 2.38281C5.85938 2.57422 5.7461 2.70703 5.63672 2.82422C5.52735 2.70703 5.41406 2.57422 5.26563 2.38281C5.07422 2.13281 4.86328 1.85156 4.59375 1.58594C4.32031 1.32422 3.94141 0.996094 3.32031 0.992188H3.31641ZM3.31641 5.99609C2.69531 5.99609 2.31641 6.32422 2.04297 6.58984C1.76953 6.85547 1.5625 7.13281 1.36719 7.38281C1.17578 7.63281 0.996094 7.85547 0.882812 7.96484C0.769531 8.07422 0.761719 7.99609 0.996094 7.99609C0.449219 7.99609 0 8.44141 0 8.99219C0 9.25781 0.105469 9.51172 0.292969 9.69922C0.480469 9.88672 0.734375 9.99219 0.996094 9.98828C1.62109 9.99219 2 9.66016 2.26953 9.39453C2.54297 9.13281 2.75391 8.85156 2.94531 8.60156C3.09375 8.41406 3.20703 8.28125 3.31641 8.16016C3.42578 8.28125 3.53906 8.41406 3.6875 8.60156C3.87891 8.85547 4.08984 9.13281 4.35938 9.39844C4.63281 9.66406 5.01172 9.99219 5.63672 9.99219C6.26172 9.99219 6.63672 9.66406 6.91016 9.39844C7.1836 9.13281 7.39453 8.85547 7.58594 8.60547C7.73438 8.41406 7.84766 8.28125 7.95703 8.16016C8.06641 8.28125 8.17969 8.41406 8.32422 8.60547C8.51953 8.85547 8.72656 9.13672 9 9.39844C9.27344 9.66406 9.65235 9.99219 10.2734 9.99219C10.8984 9.99609 11.2773 9.66406 11.5469 9.39844C11.8203 9.13672 12.0313 8.85547 12.2227 8.60547C12.3711 8.41797 12.4844 8.28125 12.5938 8.16016C12.7031 8.28125 12.8164 8.41406 12.9648 8.60547C13.1563 8.85938 13.3672 9.13672 13.6367 9.40234C13.9102 9.66797 14.2891 9.99609 14.9141 9.99609C15.4648 9.99609 15.9102 9.55078 15.9102 9C15.9102 8.51563 15.5664 8.10547 15.0898 8.01953C15.0781 8.01172 15.0586 7.99609 15.0313 7.97266C14.9141 7.85938 14.7344 7.64063 14.543 7.39063C14.3516 7.13672 14.1406 6.85938 13.8711 6.59375C13.5977 6.32813 13.2188 6 12.5977 6C11.9727 6 11.5938 6.32813 11.3203 6.59375C11.0469 6.85938 10.8398 7.13672 10.6484 7.38672C10.5 7.57813 10.3828 7.71094 10.2773 7.83203C10.168 7.71094 10.0508 7.57813 9.90625 7.38672C9.71094 7.13672 9.50391 6.85547 9.23047 6.59375C8.95703 6.32813 8.58203 6 7.95703 6C7.33203 5.99609 6.95313 6.32813 6.6836 6.59375C6.41016 6.85547 6.19922 7.13672 6.00781 7.38672C5.85938 7.57422 5.7461 7.70703 5.63672 7.82813C5.52735 7.70703 5.41406 7.57422 5.26563 7.38672C5.07422 7.13281 4.86328 6.85547 4.59375 6.58984C4.32031 6.32422 3.94141 5.99609 3.32031 5.99609H3.31641ZM3.31641 11C2.69531 10.9961 2.31641 11.3281 2.04297 11.5938C1.76953 11.8555 1.5625 12.1328 1.36719 12.3867C1.17578 12.6367 0.996094 12.8555 0.882812 12.9688C0.769531 13.0781 0.761719 12.9961 0.996094 12.9961C0.449219 12.9961 0 13.4453 0 13.9922C0 14.2578 0.105469 14.5117 0.292969 14.6992C0.480469 14.8867 0.734375 14.9922 0.996094 14.9922C1.62109 14.9922 2 14.6641 2.26953 14.3984C2.54297 14.1328 2.75391 13.8555 2.94531 13.6055C3.09375 13.4141 3.20703 13.2813 3.31641 13.1602C3.42578 13.2813 3.53906 13.4141 3.6875 13.6055C3.87891 13.8555 4.08984 14.1367 4.35938 14.3984C4.63281 14.6641 5.01172 14.9922 5.63672 14.9922C6.26172 14.9961 6.63672 14.6641 6.91016 14.3984C7.1836 14.1367 7.39453 13.8555 7.58594 13.6055C7.73438 13.4141 7.84766 13.2813 7.95703 13.1602C8.06641 13.2813 8.17969 13.418 8.32422 13.6055C8.51953 13.8594 8.72656 14.1367 9 14.4023C9.27344 14.668 9.65235 14.9961 10.2734 14.9961C10.8984 14.9961 11.2773 14.668 11.5469 14.4023C11.8203 14.1367 12.0313 13.8594 12.2227 13.6094C12.3711 13.418 12.4844 13.2852 12.5938 13.1641C12.7031 13.2852 12.8164 13.418 12.9648 13.6094C13.1563 13.8594 13.3672 14.1406 13.6406 14.4023C13.9141 14.668 14.2891 14.9961 14.9141 14.9961C15.4648 15 15.9102 14.5508 15.9102 14C15.9102 13.5195 15.5664 13.1055 15.0898 13.0195C15.0781 13.0117 15.0586 13 15.0313 12.9727C14.9141 12.8633 14.7344 12.6406 14.543 12.3906C14.3516 12.1406 14.1406 11.8633 13.8711 11.5977C13.5977 11.332 13.2188 11.0039 12.5977 11C11.9727 11 11.5938 11.332 11.3203 11.5938C11.0469 11.8594 10.8398 12.1367 10.6484 12.3867C10.5 12.5781 10.3828 12.7109 10.2773 12.832C10.168 12.7109 10.0508 12.5781 9.90625 12.3867C9.71094 12.1367 9.50391 11.8594 9.23047 11.5938C8.95703 11.3281 8.58203 11 7.95703 11C7.33203 11 6.95313 11.3281 6.6836 11.5938C6.41016 11.8594 6.19922 12.1367 6.00781 12.3867C5.85938 12.5781 5.7461 12.7109 5.63672 12.8281C5.52735 12.7109 5.41406 12.5781 5.26563 12.3867C5.07422 12.1367 4.86328 11.8555 4.59375 11.5898C4.32031 11.3281 3.94141 11 3.32031 10.9961L3.31641 11Z" fill="#2E3436" fill-opacity="0.5"/>
</svg>
